svgs/sharp-regular/calendar-lines-pen.svg

<svg xmlns="http://www.w3.org/2000/svg" viewBox="0 0 576 512"><!--! Font Awesome Pro 6.6.0 by @fontawesome - https://fontawesome.com License - https://fontawesome.com/license (Commercial License) Copyright 2024 Fonticons, Inc. --><path d="M152 0l0 24 0 40 144 0 0-40 0-24 48 0 0 24 0 40 104 0 0 80 0 48-48 0-16 0L48 192l0 272 212.3 0-6.9 48L48 512 0 512l0-48L0 192l0-48L0 64l104 0 0-40 0-24 48 0zM320 256l0 48L96 304l0-48 224 0zM96 352l160 0 0 48L96 400l0-48zM505 223.8l71 71-41.3 41.3-71-71L505 223.8zm-63.9 63.9l71 71L370.9 500 288 511.9 299.9 429 441.1 287.8z"/></svg>

<svg xmlns="http://www.w3.org/2000/svg" viewBox="0 0 576 512"><!--! Font Awesome Pro 6.5.2 by @fontawesome - https://fontawesome.com License - https://fontawesome.com/license (Commercial License) Copyright 2024 Fonticons, Inc. --><path d="M152 0V24 64H296V24 0h48V24 64H448v80 48H400 384 48V464H260.3l-6.9 48H48 0V464 192 144 64H104V24 0h48zM320 256v48H96V256H320zM96 352H256v48H96V352zM505 223.8l71 71-41.3 41.3-71-71L505 223.8zm-63.9 63.9l71 71L370.9 500 288 511.9 299.9 429 441.1 287.8z"/></svg>
